src/assets/duotone/NotificationBing.svg

<svg width="24" height="24" viewBox="0 0 24 24"  xmlns="http://www.w3.org/2000/svg">
<path opacity="0.4" d="M20.4002 16.3298C20.1202 17.0798 19.5302 17.6498 18.7602 17.9098C17.6802 18.2698 16.5702 18.5398 15.4502 18.7298C15.3402 18.7498 15.2302 18.7698 15.1202 18.7798C14.9402 18.8098 14.7602 18.8298 14.5802 18.8498C14.3602 18.8798 14.1302 18.8998 13.9002 18.9198C13.2702 18.9698 12.6502 18.9998 12.0202 18.9998C11.3802 18.9998 10.7402 18.9698 10.1102 18.9098C9.8402 18.8898 9.5802 18.8598 9.3202 18.8198C9.1702 18.7998 9.0202 18.7798 8.8802 18.7598C8.7702 18.7398 8.6602 18.7298 8.5502 18.7098C7.4402 18.5298 6.3402 18.2598 5.2702 17.8998C4.4702 17.6298 3.8602 17.0598 3.5902 16.3298C3.3202 15.6098 3.4202 14.7698 3.8502 14.0498L4.9802 12.1698C5.2202 11.7598 5.4402 10.9698 5.4402 10.4898V8.6298C5.4402 4.9998 8.3902 2.0498 12.0202 2.0498C15.6402 2.0498 18.5902 4.9998 18.5902 8.6298V10.4898C18.5902 10.9698 18.8102 11.7598 19.0602 12.1698L20.1902 14.0498C20.6002 14.7498 20.6802 15.5698 20.4002 16.3298Z" />
<path d="M12.0002 10.7596C11.5802 10.7596 11.2402 10.4196 11.2402 9.99965V6.89965C11.2402 6.47965 11.5802 6.13965 12.0002 6.13965C12.4202 6.13965 12.7602 6.47965 12.7602 6.89965V9.99965C12.7502 10.4196 12.4102 10.7596 12.0002 10.7596Z" />
<path d="M14.8302 20.01C14.4102 21.17 13.3002 22 12.0002 22C11.2102 22 10.4302 21.68 9.88018 21.11C9.56018 20.81 9.32018 20.41 9.18018 20C9.31018 20.02 9.44018 20.03 9.58018 20.05C9.81018 20.08 10.0502 20.11 10.2902 20.13C10.8602 20.18 11.4402 20.21 12.0202 20.21C12.5902 20.21 13.1602 20.18 13.7202 20.13C13.9302 20.11 14.1402 20.1 14.3402 20.07C14.5002 20.05 14.6602 20.03 14.8302 20.01Z" />
</svg>

<?xml version="1.0" encoding="UTF-8"?>
<svg width="24" height="24" viewBox="0 0 24 24" xmlns="http://www.w3.org/2000/svg">
 <path d="m20.4 16.33c-0.28 0.75-0.87 1.32-1.64 1.58-1.08 0.36-2.19 0.63-3.31 0.82-0.11 0.02-0.22 0.04-0.33 0.05-0.18 0.03-0.36 0.05-0.54 0.07-0.22 0.03-0.45 0.05-0.68 0.07-0.63 0.05-1.25 0.08-1.88 0.08-0.64 0-1.28-0.03-1.91-0.09-0.27-0.02-0.53-0.05-0.79-0.09-0.15-0.02-0.3-0.04-0.44-0.06-0.11-0.02-0.22-0.03-0.33-0.05-1.11-0.18-2.21-0.45-3.28-0.81-0.8-0.27-1.41-0.84-1.68-1.57-0.27-0.72-0.17-1.56 0.26-2.28l1.13-1.88c0.24-0.41 0.46-1.2 0.46-1.68v-1.86c0-3.63 2.95-6.58 6.58-6.58 3.62 0 6.57 2.95 6.57 6.58v1.86c0 0.48 0.22 1.27 0.47 1.68l1.13 1.88c0.41 0.7 0.49 1.52 0.21 2.28z" opacity=".4"/>
 <path d="m12 10.76c-0.42 0-0.76-0.34-0.76-0.75995v-3.1c0-0.42 0.34-0.76 0.76-0.76s0.76 0.34 0.76 0.76v3.1c-0.01 0.41995-0.35 0.75995-0.76 0.75995z"/>
 <path d="m14.83 20.01c-0.42 1.16-1.53 1.99-2.83 1.99-0.79 0-1.57-0.32-2.12-0.89-0.32-0.3-0.56-0.7-0.7-1.11 0.13 0.02 0.26 0.03 0.4 0.05 0.23 0.03 0.47002 0.06 0.71002 0.08 0.57 0.05 1.15 0.08 1.73 0.08 0.57 0 1.14-0.03 1.7-0.08 0.21-0.02 0.42-0.03 0.62-0.06 0.16-0.02 0.32-0.04 0.49-0.06z"/>
</svg>
